components/Common/Svg/svgs/titledVisualStudio.svg

<svg width="116" height="148" viewBox="0 0 116 148" fill="none" xmlns="http://www.w3.org/2000/svg">
<path d="M11.9308 125.454L7.19676 138H5.30676L0.572758 125.454H2.31876L6.26076 136.272L10.2028 125.454H11.9308ZM14.5728 126.534C14.2608 126.534 13.9968 126.426 13.7808 126.21C13.5648 125.994 13.4568 125.73 13.4568 125.418C13.4568 125.106 13.5648 124.842 13.7808 124.626C13.9968 124.41 14.2608 124.302 14.5728 124.302C14.8728 124.302 15.1248 124.41 15.3288 124.626C15.5448 124.842 15.6528 125.106 15.6528 125.418C15.6528 125.73 15.5448 125.994 15.3288 126.21C15.1248 126.426 14.8728 126.534 14.5728 126.534ZM15.3648 128.136V138H13.7268V128.136H15.3648ZM21.6485 138.162C20.8925 138.162 20.2145 138.036 19.6145 137.784C19.0145 137.52 18.5405 137.16 18.1925 136.704C17.8445 136.236 17.6525 135.702 17.6165 135.102H19.3085C19.3565 135.594 19.5845 135.996 19.9925 136.308C20.4125 136.62 20.9585 136.776 21.6305 136.776C22.2545 136.776 22.7465 136.638 23.1065 136.362C23.4665 136.086 23.6465 135.738 23.6465 135.318C23.6465 134.886 23.4545 134.568 23.0705 134.364C22.6865 134.148 22.0925 133.938 21.2885 133.734C20.5565 133.542 19.9565 133.35 19.4885 133.158C19.0325 132.954 18.6365 132.66 18.3005 132.276C17.9765 131.88 17.8145 131.364 17.8145 130.728C17.8145 130.224 17.9645 129.762 18.2645 129.342C18.5645 128.922 18.9905 128.592 19.5425 128.352C20.0945 128.1 20.7245 127.974 21.4325 127.974C22.5245 127.974 23.4065 128.25 24.0785 128.802C24.7505 129.354 25.1105 130.11 25.1585 131.07H23.5205C23.4845 130.554 23.2745 130.14 22.8905 129.828C22.5185 129.516 22.0145 129.36 21.3785 129.36C20.7905 129.36 20.3225 129.486 19.9745 129.738C19.6265 129.99 19.4525 130.32 19.4525 130.728C19.4525 131.052 19.5545 131.322 19.7585 131.538C19.9745 131.742 20.2385 131.91 20.5505 132.042C20.8745 132.162 21.3185 132.3 21.8825 132.456C22.5905 132.648 23.1665 132.84 23.6105 133.032C24.0545 133.212 24.4325 133.488 24.7445 133.86C25.0685 134.232 25.2365 134.718 25.2485 135.318C25.2485 135.858 25.0985 136.344 24.7985 136.776C24.4985 137.208 24.0725 137.55 23.5205 137.802C22.9805 138.042 22.3565 138.162 21.6485 138.162ZM36.3088 128.136V138H34.6708V136.542C34.3588 137.046 33.9208 137.442 33.3568 137.73C32.8048 138.006 32.1928 138.144 31.5208 138.144C30.7528 138.144 30.0628 137.988 29.4508 137.676C28.8388 137.352 28.3528 136.872 27.9928 136.236C27.6448 135.6 27.4708 134.826 27.4708 133.914V128.136H29.0908V133.698C29.0908 134.67 29.3368 135.42 29.8288 135.948C30.3208 136.464 30.9928 136.722 31.8448 136.722C32.7208 136.722 33.4108 136.452 33.9148 135.912C34.4188 135.372 34.6708 134.586 34.6708 133.554V128.136H36.3088ZM38.4625 133.032C38.4625 132.024 38.6665 131.142 39.0745 130.386C39.4825 129.618 40.0405 129.024 40.7485 128.604C41.4685 128.184 42.2665 127.974 43.1425 127.974C44.0065 127.974 44.7565 128.16 45.3925 128.532C46.0285 128.904 46.5025 129.372 46.8145 129.936V128.136H48.4705V138H46.8145V136.164C46.4905 136.74 46.0045 137.22 45.3565 137.604C44.7205 137.976 43.9765 138.162 43.1245 138.162C42.2485 138.162 41.4565 137.946 40.7485 137.514C40.0405 137.082 39.4825 136.476 39.0745 135.696C38.6665 134.916 38.4625 134.028 38.4625 133.032ZM46.8145 133.05C46.8145 132.306 46.6645 131.658 46.3645 131.106C46.0645 130.554 45.6565 130.134 45.1405 129.846C44.6365 129.546 44.0785 129.396 43.4665 129.396C42.8545 129.396 42.2965 129.54 41.7925 129.828C41.2885 130.116 40.8865 130.536 40.5865 131.088C40.2865 131.64 40.1365 132.288 40.1365 133.032C40.1365 133.788 40.2865 134.448 40.5865 135.012C40.8865 135.564 41.2885 135.99 41.7925 136.29C42.2965 136.578 42.8545 136.722 43.4665 136.722C44.0785 136.722 44.6365 136.578 45.1405 136.29C45.6565 135.99 46.0645 135.564 46.3645 135.012C46.6645 134.448 46.8145 133.794 46.8145 133.05ZM52.8765 124.68V138H51.2385V124.68H52.8765ZM64.4451 138.126C63.6171 138.126 62.8731 137.982 62.2131 137.694C61.5651 137.394 61.0551 136.986 60.6831 136.47C60.3111 135.942 60.1191 135.336 60.1071 134.652H61.8531C61.9131 135.24 62.1531 135.738 62.5731 136.146C63.0051 136.542 63.6291 136.74 64.4451 136.74C65.2251 136.74 65.8371 136.548 66.2811 136.164C66.7371 135.768 66.9651 135.264 66.9651 134.652C66.9651 134.172 66.8331 133.782 66.5691 133.482C66.3051 133.182 65.9751 132.954 65.5791 132.798C65.1831 132.642 64.6491 132.474 63.9771 132.294C63.1491 132.078 62.4831 131.862 61.9791 131.646C61.4871 131.43 61.0611 131.094 60.7011 130.638C60.3531 130.17 60.1791 129.546 60.1791 128.766C60.1791 128.082 60.3531 127.476 60.7011 126.948C61.0491 126.42 61.5351 126.012 62.1591 125.724C62.7951 125.436 63.5211 125.292 64.3371 125.292C65.5131 125.292 66.4731 125.586 67.2171 126.174C67.9731 126.762 68.3991 127.542 68.4951 128.514H66.6951C66.6351 128.034 66.3831 127.614 65.9391 127.254C65.4951 126.882 64.9071 126.696 64.1751 126.696C63.4911 126.696 62.9331 126.876 62.5011 127.236C62.0691 127.584 61.8531 128.076 61.8531 128.712C61.8531 129.168 61.9791 129.54 62.2311 129.828C62.4951 130.116 62.8131 130.338 63.1851 130.494C63.5691 130.638 64.1031 130.806 64.7871 130.998C65.6151 131.226 66.2811 131.454 66.7851 131.682C67.2891 131.898 67.7211 132.24 68.0811 132.708C68.4411 133.164 68.6211 133.788 68.6211 134.58C68.6211 135.192 68.4591 135.768 68.1351 136.308C67.8111 136.848 67.3311 137.286 66.6951 137.622C66.0591 137.958 65.3091 138.126 64.4451 138.126ZM73.0295 129.486V135.3C73.0295 135.78 73.1315 136.122 73.3355 136.326C73.5395 136.518 73.8935 136.614 74.3975 136.614H75.6035V138H74.1275C73.2155 138 72.5315 137.79 72.0755 137.37C71.6195 136.95 71.3915 136.26 71.3915 135.3V129.486H70.1135V128.136H71.3915V125.652H73.0295V128.136H75.6035V129.486H73.0295ZM86.3361 128.136V138H84.6981V136.542C84.3861 137.046 83.9481 137.442 83.3841 137.73C82.8321 138.006 82.2201 138.144 81.5481 138.144C80.7801 138.144 80.0901 137.988 79.4781 137.676C78.8661 137.352 78.3801 136.872 78.0201 136.236C77.6721 135.6 77.4981 134.826 77.4981 133.914V128.136H79.1181V133.698C79.1181 134.67 79.3641 135.42 79.8561 135.948C80.3481 136.464 81.0201 136.722 81.8721 136.722C82.7481 136.722 83.4381 136.452 83.9421 135.912C84.4461 135.372 84.6981 134.586 84.6981 133.554V128.136H86.3361ZM88.4898 133.032C88.4898 132.024 88.6938 131.142 89.1018 130.386C89.5098 129.618 90.0678 129.024 90.7758 128.604C91.4958 128.184 92.2998 127.974 93.1878 127.974C93.9558 127.974 94.6698 128.154 95.3298 128.514C95.9898 128.862 96.4938 129.324 96.8418 129.9V124.68H98.4978V138H96.8418V136.146C96.5178 136.734 96.0378 137.22 95.4018 137.604C94.7658 137.976 94.0218 138.162 93.1698 138.162C92.2938 138.162 91.4958 137.946 90.7758 137.514C90.0678 137.082 89.5098 136.476 89.1018 135.696C88.6938 134.916 88.4898 134.028 88.4898 133.032ZM96.8418 133.05C96.8418 132.306 96.6918 131.658 96.3918 131.106C96.0918 130.554 95.6838 130.134 95.1678 129.846C94.6638 129.546 94.1058 129.396 93.4938 129.396C92.8818 129.396 92.3238 129.54 91.8198 129.828C91.3158 130.116 90.9138 130.536 90.6138 131.088C90.3138 131.64 90.1638 132.288 90.1638 133.032C90.1638 133.788 90.3138 134.448 90.6138 135.012C90.9138 135.564 91.3158 135.99 91.8198 136.29C92.3238 136.578 92.8818 136.722 93.4938 136.722C94.1058 136.722 94.6638 136.578 95.1678 136.29C95.6838 135.99 96.0918 135.564 96.3918 135.012C96.6918 134.448 96.8418 133.794 96.8418 133.05ZM102.112 126.534C101.8 126.534 101.536 126.426 101.32 126.21C101.104 125.994 100.996 125.73 100.996 125.418C100.996 125.106 101.104 124.842 101.32 124.626C101.536 124.41 101.8 124.302 102.112 124.302C102.412 124.302 102.664 124.41 102.868 124.626C103.084 124.842 103.192 125.106 103.192 125.418C103.192 125.73 103.084 125.994 102.868 126.21C102.664 126.426 102.412 126.534 102.112 126.534ZM102.904 128.136V138H101.266V128.136H102.904ZM109.998 138.162C109.074 138.162 108.234 137.952 107.478 137.532C106.734 137.112 106.146 136.518 105.714 135.75C105.294 134.97 105.084 134.07 105.084 133.05C105.084 132.042 105.3 131.154 105.732 130.386C106.176 129.606 106.776 129.012 107.532 128.604C108.288 128.184 109.134 127.974 110.07 127.974C111.006 127.974 111.852 128.184 112.608 128.604C113.364 129.012 113.958 129.6 114.39 130.368C114.834 131.136 115.056 132.03 115.056 133.05C115.056 134.07 114.828 134.97 114.372 135.75C113.928 136.518 113.322 137.112 112.554 137.532C111.786 137.952 110.934 138.162 109.998 138.162ZM109.998 136.722C110.586 136.722 111.138 136.584 111.654 136.308C112.17 136.032 112.584 135.618 112.896 135.066C113.22 134.514 113.382 133.842 113.382 133.05C113.382 132.258 113.226 131.586 112.914 131.034C112.602 130.482 112.194 130.074 111.69 129.81C111.186 129.534 110.64 129.396 110.052 129.396C109.452 129.396 108.9 129.534 108.396 129.81C107.904 130.074 107.508 130.482 107.208 131.034C106.908 131.586 106.758 132.258 106.758 133.05C106.758 133.854 106.902 134.532 107.19 135.084C107.49 135.636 107.886 136.05 108.378 136.326C108.87 136.59 109.41 136.722 109.998 136.722Z" fill="#A0A0A0"/>
<g clip-path="url(#clip0_6994_50006)">
<path d="M101.28 11.9023L80.6263 3.62305L44.5751 38.731L22.8654 22.205L14.6103 26.3568L14.6022 69.6956L22.8185 73.8173L44.5105 57.3049L80.6502 92.3807L101.288 84.1337L101.28 11.9023Z" fill="#CFCFCF" stroke="white" stroke-width="6.19119"/>
<path d="M78.5706 32.5312L57.9412 47.9529L78.5787 63.4955L78.5706 32.5312ZM24.9164 38.7481L24.9286 57.2971L35.2348 47.9598L24.9164 38.7481Z" fill="white"/>
</g>
<defs>
<clipPath id="clip0_6994_50006">
<rect width="92.8896" height="96" fill="white" transform="translate(11.5)"/>
</clipPath>
</defs>
</svg>

<svg width="116" height="148" viewBox="0 0 116 148" fill="none" xmlns="http://www.w3.org/2000/svg"><path d="M11.93 125.454 7.198 138h-1.89L.573 125.454h1.746l3.942 10.818 3.942-10.818h1.728Zm2.643 1.08c-.312 0-.576-.108-.792-.324a1.077 1.077 0 0 1-.324-.792c0-.312.108-.576.324-.792.216-.216.48-.324.792-.324.3 0 .552.108.756.324.216.216.324.48.324.792 0 .312-.108.576-.324.792a.998.998 0 0 1-.756.324Zm.792 1.602V138h-1.638v-9.864h1.638Zm6.283 10.026c-.756 0-1.433-.126-2.034-.378-.6-.264-1.073-.624-1.422-1.08a2.92 2.92 0 0 1-.576-1.602h1.692c.049.492.276.894.684 1.206.42.312.966.468 1.639.468.623 0 1.116-.138 1.476-.414.36-.276.54-.624.54-1.044 0-.432-.192-.75-.576-.954-.385-.216-.979-.426-1.783-.63a14.665 14.665 0 0 1-1.8-.576 3.418 3.418 0 0 1-1.188-.882c-.323-.396-.486-.912-.486-1.548 0-.504.15-.966.45-1.386.3-.42.727-.75 1.279-.99.552-.252 1.181-.378 1.89-.378 1.091 0 1.974.276 2.645.828.672.552 1.032 1.308 1.08 2.268H23.52c-.035-.516-.245-.93-.63-1.242-.372-.312-.875-.468-1.512-.468-.587 0-1.055.126-1.404.378-.348.252-.521.582-.521.99 0 .324.102.594.306.81.215.204.48.372.791.504.325.12.768.258 1.332.414.708.192 1.284.384 1.728.576.445.18.823.456 1.134.828.325.372.492.858.505 1.458 0 .54-.15 1.026-.45 1.458-.3.432-.726.774-1.279 1.026-.54.24-1.163.36-1.872.36Zm14.66-10.026V138h-1.637v-1.458c-.312.504-.75.9-1.314 1.188a4.047 4.047 0 0 1-1.836.414c-.768 0-1.458-.156-2.07-.468a3.582 3.582 0 0 1-1.458-1.44c-.348-.636-.522-1.41-.522-2.322v-5.778h1.62v5.562c0 .972.246 1.722.738 2.25.492.516 1.164.774 2.016.774.876 0 1.566-.27 2.07-.81.504-.54.756-1.326.756-2.358v-5.418h1.638Zm2.154 4.896c0-1.008.204-1.89.612-2.646a4.446 4.446 0 0 1 1.675-1.782c.72-.42 1.517-.63 2.393-.63.864 0 1.614.186 2.25.558.636.372 1.11.84 1.422 1.404v-1.8h1.657V138h-1.656v-1.836c-.325.576-.81 1.056-1.459 1.44-.636.372-1.38.558-2.232.558-.876 0-1.668-.216-2.376-.648-.707-.432-1.265-1.038-1.673-1.818-.409-.78-.613-1.668-.613-2.664Zm8.352.018c0-.744-.15-1.392-.45-1.944a3.098 3.098 0 0 0-1.223-1.26 3.211 3.211 0 0 0-1.674-.45c-.612 0-1.17.144-1.675.432a3.134 3.134 0 0 0-1.206 1.26c-.3.552-.45 1.2-.45 1.944 0 .756.15 1.416.45 1.98.3.552.703.978 1.206 1.278a3.314 3.314 0 0 0 1.675.432c.611 0 1.17-.144 1.674-.432.516-.3.924-.726 1.224-1.278.3-.564.45-1.218.45-1.962Zm6.063-8.37V138h-1.639v-13.32h1.639Zm11.568 13.446c-.828 0-1.572-.144-2.232-.432-.648-.3-1.158-.708-1.53-1.224a3.178 3.178 0 0 1-.576-1.818h1.746c.06.588.3 1.086.72 1.494.432.396 1.056.594 1.872.594.78 0 1.392-.192 1.836-.576.456-.396.684-.9.684-1.512 0-.48-.132-.87-.396-1.17a2.53 2.53 0 0 0-.99-.684c-.396-.156-.93-.324-1.602-.504-.828-.216-1.494-.432-1.998-.648a3.318 3.318 0 0 1-1.278-1.008c-.348-.468-.522-1.092-.522-1.872 0-.684.174-1.29.522-1.818.348-.528.834-.936 1.458-1.224.636-.288 1.362-.432 2.178-.432 1.176 0 2.136.294 2.88.882.756.588 1.182 1.368 1.278 2.34h-1.8c-.06-.48-.312-.9-.756-1.26-.444-.372-1.032-.558-1.764-.558-.684 0-1.242.18-1.674.54-.432.348-.648.84-.648 1.476 0 .456.126.828.378 1.116.264.288.582.51.954.666.384.144.918.312 1.602.504.828.228 1.494.456 1.998.684.504.216.936.558 1.296 1.026.36.456.54 1.08.54 1.872 0 .612-.162 1.188-.486 1.728-.324.54-.804.978-1.44 1.314-.636.336-1.386.504-2.25.504Zm8.585-8.64v5.814c0 .48.102.822.305 1.026.205.192.559.288 1.063.288h1.206V138h-1.477c-.911 0-1.596-.21-2.051-.63-.456-.42-.684-1.11-.684-2.07v-5.814h-1.278v-1.35h1.277v-2.484h1.638v2.484h2.575v1.35h-2.575Zm13.306-1.35V138h-1.638v-1.458c-.312.504-.75.9-1.314 1.188a4.047 4.047 0 0 1-1.836.414c-.768 0-1.458-.156-2.07-.468a3.582 3.582 0 0 1-1.458-1.44c-.348-.636-.522-1.41-.522-2.322v-5.778h1.62v5.562c0 .972.246 1.722.738 2.25.492.516 1.164.774 2.016.774.876 0 1.566-.27 2.07-.81.504-.54.756-1.326.756-2.358v-5.418h1.638Zm2.154 4.896c0-1.008.204-1.89.612-2.646a4.446 4.446 0 0 1 1.674-1.782c.72-.42 1.524-.63 2.412-.63.768 0 1.482.18 2.142.54.66.348 1.164.81 1.512 1.386v-5.22h1.656V138h-1.656v-1.854c-.324.588-.804 1.074-1.44 1.458-.636.372-1.38.558-2.232.558a4.564 4.564 0 0 1-2.394-.648c-.708-.432-1.266-1.038-1.674-1.818-.408-.78-.612-1.668-.612-2.664Zm8.352.018c0-.744-.15-1.392-.45-1.944a3.098 3.098 0 0 0-1.224-1.26 3.211 3.211 0 0 0-1.674-.45c-.612 0-1.17.144-1.674.432a3.134 3.134 0 0 0-1.206 1.26c-.3.552-.45 1.2-.45 1.944 0 .756.15 1.416.45 1.98.3.552.702.978 1.206 1.278a3.314 3.314 0 0 0 1.674.432c.612 0 1.17-.144 1.674-.432.516-.3.924-.726 1.224-1.278.3-.564.45-1.218.45-1.962Zm5.27-6.516c-.312 0-.576-.108-.792-.324a1.077 1.077 0 0 1-.324-.792c0-.312.108-.576.324-.792.216-.216.48-.324.792-.324.3 0 .552.108.756.324.216.216.324.48.324.792 0 .312-.108.576-.324.792a.998.998 0 0 1-.756.324Zm.792 1.602V138h-1.638v-9.864h1.638Zm7.094 10.026c-.924 0-1.764-.21-2.52-.63a4.58 4.58 0 0 1-1.764-1.782c-.42-.78-.63-1.68-.63-2.7 0-1.008.216-1.896.648-2.664a4.51 4.51 0 0 1 1.8-1.782c.756-.42 1.602-.63 2.538-.63.936 0 1.782.21 2.538.63.756.408 1.35.996 1.782 1.764.444.768.666 1.662.666 2.682s-.228 1.92-.684 2.7a4.634 4.634 0 0 1-1.818 1.782c-.768.42-1.62.63-2.556.63Zm0-1.44c.588 0 1.14-.138 1.656-.414.516-.276.93-.69 1.242-1.242.324-.552.486-1.224.486-2.016s-.156-1.464-.468-2.016c-.312-.552-.72-.96-1.224-1.224a3.356 3.356 0 0 0-1.638-.414c-.6 0-1.152.138-1.656.414-.492.264-.888.672-1.188 1.224-.3.552-.45 1.224-.45 2.016 0 .804.144 1.482.432 2.034.3.552.696.966 1.188 1.242a3.372 3.372 0 0 0 1.62.396Z" fill="#A0A0A0"/><path d="M101.28 11.902 80.626 3.623l-36.05 35.108-21.71-16.526-8.256 4.152-.008 43.339 8.216 4.121L44.51 57.305 80.65 92.38l20.638-8.247-.008-72.232Z" fill="#CFCFCF" stroke="#fff" stroke-width="6.191"/><path d="M78.57 32.531 57.942 47.953 78.58 63.495l-.008-30.964Zm-53.654 6.217.013 18.55 10.306-9.338-10.319-9.212Z" fill="#fff"/></svg>
